packages/core/src/svgs/tokens/branded/BLID.svg

<svg width="24" height="24" viewBox="0 0 24 24" fill="none" xmlns="http://www.w3.org/2000/svg">
<path d="M6.59324 16.0021C5.96824 16.0371 5.93823 15.1221 6.04824 14.717C6.62325 12.6771 7.22325 10.642 7.84827 8.61698C8.03548 7.99641 8.36999 7.43031 8.82327 6.96695C9.38825 6.39194 10.6133 6.24194 10.9534 7.15696C11.0783 7.49196 10.9133 8.24197 10.7833 8.69692L9.38324 13.3771C8.99828 14.657 8.04826 15.9221 6.59324 16.0021ZM9.01827 8.34197L7.23325 14.242C7.22264 14.2768 7.22169 14.3138 7.2305 14.349C7.2393 14.3843 7.25754 14.4164 7.28325 14.442C7.31122 14.4691 7.34598 14.488 7.38384 14.4967C7.4217 14.5056 7.46124 14.504 7.49826 14.4921L7.64326 14.442C7.88327 14.372 8.04326 14.2171 8.10826 13.982L9.82331 8.25197C9.83311 8.21981 9.83498 8.18576 9.82891 8.1527C9.82284 8.11965 9.80896 8.08852 9.78831 8.06196C9.76789 8.03469 9.74141 8.01242 9.71119 7.99682C9.68086 7.98123 9.64737 7.97273 9.61331 7.97197H9.53829C9.26832 7.96696 9.09328 8.09197 9.01827 8.34197ZM16.3784 6.74194C16.4134 6.62195 16.4883 6.55694 16.6134 6.54194C17.3934 6.47694 19.3084 6.30194 18.9534 7.79196C18.6434 9.11203 18.2934 10.427 17.9185 11.732C17.6584 12.622 17.1584 13.192 16.4183 13.4421C15.8001 13.6504 15.1747 13.8372 14.5434 14.0021C14.5353 14.0003 14.5277 13.9969 14.5211 13.9921C14.5144 13.9874 14.5088 13.9813 14.5046 13.9743C14.5004 13.9673 14.4976 13.9595 14.4966 13.9513C14.4955 13.9431 14.4961 13.935 14.4983 13.927L16.3784 6.74194ZM16.8284 11.9471L17.8485 7.96696C17.857 7.93223 17.8584 7.89609 17.8523 7.86082C17.8462 7.82554 17.8331 7.79189 17.8135 7.76196C17.7937 7.73221 17.768 7.707 17.7379 7.68803C17.7076 7.66906 17.6737 7.65675 17.6385 7.65196L17.5534 7.64196C17.3384 7.61696 17.2034 7.71196 17.1533 7.92196L15.9983 12.352C15.9434 12.552 16.0084 12.6121 16.1984 12.5371L16.3984 12.452C16.6184 12.3621 16.7634 12.1921 16.8234 11.952L16.8284 11.9471ZM20.5184 8.82199L21.1884 8.74195C21.2021 8.73974 21.216 8.7409 21.229 8.74522C21.2421 8.74954 21.2539 8.75701 21.2635 8.76692C21.2735 8.78197 21.2834 8.79201 21.2834 8.80694V8.85197L21.1434 9.487C21.1434 9.50695 21.1335 9.522 21.1184 9.53693C21.1044 9.54895 21.0868 9.55595 21.0685 9.557L20.2384 9.68697C20.2194 9.68942 20.2018 9.69829 20.1885 9.71194C20.1777 9.72489 20.1707 9.7404 20.1684 9.75697L19.8385 11.147C19.8354 11.1621 19.836 11.1778 19.8404 11.1926C19.8448 11.2074 19.8527 11.2209 19.8634 11.232C19.8739 11.2436 19.8875 11.2521 19.9024 11.2565C19.9175 11.2608 19.9333 11.2611 19.9485 11.257L20.8384 11.027C20.8528 11.0239 20.8677 11.0246 20.8817 11.029C20.8957 11.0333 20.9084 11.0413 20.9185 11.052C20.9295 11.0628 20.9377 11.0764 20.9421 11.0912C20.9465 11.1061 20.9469 11.1219 20.9434 11.137L20.7934 11.802C20.7934 11.822 20.7835 11.832 20.7734 11.847C20.7627 11.859 20.7488 11.8676 20.7334 11.872L18.6084 12.497C18.5937 12.5017 18.5781 12.5023 18.5632 12.4988C18.5482 12.4953 18.5345 12.4877 18.5234 12.477C18.5123 12.4652 18.5045 12.4506 18.501 12.4347C18.4975 12.419 18.4983 12.4024 18.5034 12.387L19.9284 6.57195C19.9326 6.55241 19.9431 6.53482 19.9584 6.52194C19.9725 6.51003 19.99 6.50302 20.0085 6.50195H21.9085C21.922 6.50175 21.9356 6.50482 21.9477 6.51091C21.96 6.517 21.9705 6.52593 21.9785 6.53695C21.9871 6.54717 21.9934 6.5592 21.9969 6.57218C22.0004 6.58515 22.0009 6.59875 21.9985 6.61194L21.8385 7.33196C21.8385 7.35196 21.8235 7.37195 21.8084 7.38195C21.7944 7.39386 21.7768 7.40089 21.7585 7.40196L20.7835 7.43696C20.765 7.43804 20.7475 7.44505 20.7334 7.45696C20.7181 7.46984 20.7076 7.48742 20.7034 7.50696L20.4234 8.70695C20.4197 8.72165 20.4196 8.73717 20.4231 8.75187C20.4266 8.76669 20.4336 8.78046 20.4434 8.79201L20.4784 8.81697H20.5184V8.82199ZM5.96323 11.612C6.16824 11.747 6.25323 11.9121 6.22324 12.112C5.97824 13.667 5.55322 14.9771 4.95322 16.0321C4.41321 16.9721 3.0882 17.2321 2.13317 17.4971C2.11535 17.5013 2.09673 17.5007 2.07918 17.4955C2.06164 17.4901 2.04578 17.4804 2.03318 17.4671C2.01947 17.4537 2.00949 17.437 2.00423 17.4186C1.99897 17.4001 1.99861 17.3807 2.00318 17.3621L5.20322 6.65195C5.21822 6.60194 5.24822 6.57694 5.29822 6.56694C6.00324 6.47194 6.59825 6.48195 7.07825 6.59194C8.03826 6.82194 7.07825 9.36193 6.82825 10.157C6.65825 10.707 6.36823 11.157 5.95824 11.497C5.90823 11.542 5.90823 11.577 5.96323 11.612ZM5.03322 10.737C5.02097 10.7784 5.02321 10.8229 5.03957 10.8629C5.05593 10.9028 5.08544 10.936 5.12322 10.957C5.16117 10.9777 5.2053 10.984 5.24753 10.9748C5.28975 10.9657 5.32727 10.9416 5.35322 10.907L5.71323 10.467C5.72915 10.4479 5.74105 10.4258 5.74823 10.402L6.30324 8.42697C6.3148 8.38804 6.31324 8.34638 6.29878 8.30843C6.28431 8.27047 6.25777 8.23833 6.22324 8.21697C6.2004 8.20318 6.17477 8.19464 6.14823 8.19197L5.93324 8.17197C5.89034 8.16893 5.84777 8.18134 5.81323 8.20697C5.77926 8.23143 5.75458 8.26667 5.74323 8.30697L5.03322 10.737ZM3.85821 15.5021L4.0732 15.4021C4.25821 15.3021 4.37821 15.1621 4.43821 14.962L5.05822 12.8221C5.06771 12.7882 5.06949 12.7527 5.06344 12.718C5.05737 12.6835 5.04364 12.6506 5.02322 12.622C5.00277 12.5948 4.97639 12.5725 4.94608 12.5569C4.91576 12.5413 4.8823 12.5327 4.84822 12.532H4.77321C4.69466 12.5283 4.61716 12.5513 4.55321 12.597C4.48866 12.6439 4.44123 12.7107 4.41822 12.7871L3.6682 15.3371C3.6082 15.5421 3.6682 15.597 3.85821 15.5021ZM11.3883 13.327L12.2683 13.087H12.2883C12.2983 13.087 12.3033 13.0971 12.3083 13.1021C12.315 13.1073 12.3201 13.1142 12.3233 13.122V13.152L12.0384 14.3271C12.0359 14.3367 12.0307 14.3454 12.0233 14.3521C12.0176 14.357 12.0107 14.3605 12.0034 14.3621L10.0533 15.002H10.0333C10.0254 14.9991 10.0184 14.9939 10.0132 14.9871C10.0059 14.9804 10.0006 14.9717 9.99831 14.962V14.937L12.0933 6.53695C12.0958 6.52731 12.1009 6.51861 12.1084 6.51195C12.1153 6.50582 12.1241 6.50228 12.1333 6.50195L12.9533 6.50694L12.9734 6.51195C12.9793 6.51582 12.9844 6.52093 12.9883 6.52695L12.9983 6.54695V6.57195L11.3333 13.2671V13.292L11.3433 13.317L11.3633 13.327H11.3883ZM12.4983 14.132L14.4983 6.57195C14.5084 6.53194 14.5434 6.50195 14.5834 6.50195H15.4134C15.4733 6.50195 15.5133 6.57694 15.4934 6.63195L13.5784 13.9021C13.5748 13.9168 13.5679 13.9304 13.5583 13.9421C13.5476 13.954 13.5337 13.9626 13.5183 13.9671L12.6133 14.2571C12.5971 14.2624 12.5796 14.2624 12.5634 14.2571C12.5479 14.2527 12.534 14.244 12.5234 14.232C12.513 14.2189 12.5061 14.2034 12.5033 14.1871C12.4991 14.1706 12.4991 14.1535 12.5033 14.137L12.4983 14.132Z" fill="#132227"/>
</svg>

<svg xmlns="http://www.w3.org/2000/svg" width="24" height="24" fill="none" viewBox="0 0 24 24">
    <path fill="#132227" d="M6.593 16.002c-.625.035-.655-.88-.545-1.285a258 258 0 0 1 1.8-6.1 4 4 0 0 1 .975-1.65c.565-.575 1.79-.725 2.13.19.125.335-.04 1.085-.17 1.54l-1.4 4.68c-.385 1.28-1.335 2.545-2.79 2.625m2.425-7.66-1.785 5.9a.2.2 0 0 0 .15.255.2.2 0 0 0 .115-.005l.145-.05c.24-.07.4-.225.465-.46l1.715-5.73a.21.21 0 0 0-.035-.19.23.23 0 0 0-.175-.09h-.075q-.406-.006-.52.37m7.36-1.6a.255.255 0 0 1 .235-.2c.78-.065 2.695-.24 2.34 1.25-.31 1.32-.66 2.635-1.034 3.94q-.39 1.335-1.5 1.71-.928.312-1.876.56a.06.06 0 0 1-.045-.075zm.45 5.205 1.02-3.98a.26.26 0 0 0-.11-.279.3.3 0 0 0-.1-.036l-.085-.01q-.324-.036-.4.28l-1.155 4.43q-.084.299.2.185l.2-.085c.22-.09.365-.26.425-.5zm3.69-3.125.67-.08a.09.09 0 0 1 .076.025c.01.015.02.025.02.04v.045l-.14.635q-.001.029-.026.05a.1.1 0 0 1-.05.02l-.83.13a.1.1 0 0 0-.05.025.1.1 0 0 0-.02.045l-.33 1.39a.1.1 0 0 0 .025.085.09.09 0 0 0 .085.025l.89-.23a.09.09 0 0 1 .08.025.09.09 0 0 1 .025.085l-.15.665c0 .02-.01.03-.02.045a.1.1 0 0 1-.04.025l-2.125.625a.09.09 0 0 1-.085-.02.09.09 0 0 1-.02-.09l1.425-5.815a.1.1 0 0 1 .03-.05.1.1 0 0 1 .05-.02h1.9a.1.1 0 0 1 .07.035.1.1 0 0 1 .02.075l-.16.72c0 .02-.015.04-.03.05a.1.1 0 0 1-.05.02l-.974.035a.1.1 0 0 0-.05.02.1.1 0 0 0-.03.05l-.28 1.2a.1.1 0 0 0 .02.085l.034.025h.04zm-14.555 2.79q.306.201.26.5c-.245 1.555-.67 2.865-1.27 3.92-.54.94-1.865 1.2-2.82 1.465a.1.1 0 0 1-.1-.03.11.11 0 0 1-.03-.105l3.2-10.71c.015-.05.045-.075.095-.085q1.059-.141 1.78.025c.96.23 0 2.77-.25 3.565-.17.55-.46 1-.87 1.34-.05.045-.05.08.005.115m-.93-.875a.19.19 0 0 0 .09.22.18.18 0 0 0 .23-.05l.36-.44a.2.2 0 0 0 .035-.065l.555-1.975a.185.185 0 0 0-.08-.21.2.2 0 0 0-.075-.025l-.215-.02a.185.185 0 0 0-.19.135zm-1.175 4.765.215-.1a.7.7 0 0 0 .365-.44l.62-2.14a.24.24 0 0 0-.035-.2.23.23 0 0 0-.175-.09h-.075a.35.35 0 0 0-.355.255l-.75 2.55c-.06.205 0 .26.19.165m7.53-2.175.88-.24h.02c.01 0 .015.01.02.015l.015.02v.03l-.285 1.175a.05.05 0 0 1-.015.025l-.02.01-1.95.64h-.02l-.02-.015a.05.05 0 0 1-.015-.025v-.025l2.095-8.4a.05.05 0 0 1 .015-.025.04.04 0 0 1 .025-.01l.82.005.02.005.015.015.01.02v.025l-1.665 6.695v.025l.01.025.02.01zm1.11.805 2-7.56a.09.09 0 0 1 .085-.07h.83c.06 0 .1.075.08.13l-1.915 7.27a.1.1 0 0 1-.02.04.1.1 0 0 1-.04.025l-.905.29a.1.1 0 0 1-.05 0 .1.1 0 0 1-.04-.025.1.1 0 0 1-.02-.045.1.1 0 0 1 0-.05z"/>
</svg>
